!!!!SEGMENT: pl-kozmzk--mzk-m-31--014_szymanowska-maria--preludium-d-moll.krn
!!!cenid: 18xx:450
!!!COM: Szymanowska, Maria
!!!COM-rismID:
!!!CDT: 1789/12/14-1831/07/25
!!!CNT: Polish
!!!GTL: Vingt Exercices et Préludes pour le Pianoforte
!!!OTL: Preludium d-moll
!!!PDT: 1819
!!!AGN: Secular; Prelude
!!!SMS-siglum: PL-KOZmzk
!!!SMS-shelfmark: mzk/m/31
!!!SMS-shelfwork: 014 G
!!!SMS-variant:
!!!SMS-altvar:
!!!NIFC-rismSourceID: 1001025337
!!!NIFC-islandoraID: pl-kozmzk:6325
!!!URL-pdf-islandora: https://repozytorium.nifc.pl/islandora/object/pl-kozmzk%3A6325/datastream/PDF/view
!!!URL-scan: https://polish.musicsources.pl/pl/lokalizacje/galeria/rekopisy/462 @EN{Scan on Polish Music Herritage in Open Access Website} @PL{Skany w portalu Dziedzictwo Muzyki Polskiej w otwartym dostępie}
!!!ONB-nifc:
!!!AIN: 1 piano
!!!key:
**kern	**kern	**dynam
*part1	*part1	*part1
*staff2	*staff1	*
*Ipiano	*Iempty	*
*I"Piano	*	*
*I'Pno.	*	*
*clefF4	*clefG2	*
*k[b-]	*k[b-]	*
*d:	*d:	*
*M6/8	*M6/8	*
*[>A,A,B]	*[>A,A,B]	*
*>A	*>A	*
=1	=1	=1
*	*^	*
!LO:TX:a:i:t=piano e legato	!LO:TX:a:i:B:t=Risoluto	!	!
4.d\ 4.f\	8ff/L	4.a\	.
.	8ee/	.	.
.	8dd/J	.	.
4.A\ 4.e\	8cc#X/L	4.g\	.
.	8dd/	.	.
.	8ee/J	.	.
=2	=2	=2	=2
4.B-\ 4.d\	8dd/L	4.f\	.
.	8ccn/	.	.
.	8b-/J	.	.
4.F#X\ 4.c\	8a/L	4.e-X\	.
.	8b-/	.	.
.	8cc/J	.	.
=3	=3	=3	=3
4.G\ 4.B-\	8b-/L	4.d\	.
.	8a/	.	.
.	8g/J	.	.
4.D\ 4.A\	8f#X/L	4.c\	.
.	8g/	.	.
.	8a/J	.	.
=4	=4	=4	=4
4.E-X\ 4.G\	8g/L	4.B-\	.
.	8fn/	.	.
.	8e-X/J	.	.
(4.BBn^\ 4.F\	8d-X/L	4.A-X\	.
.	8e-/	.	.
.	8f/J	.	.
=5	=5	=5	=5
4C\) 4E-X\	8e-X/L	4.G\	.
.	8d/	.	.
8r	8c/J	.	.
(4.C#X^\ 4.G\	8b-/L	4.en\	.
.	8a/	.	.
.	8g/J	.	.
=6	=6	=6	=6
4D\) 4F#X\	8f#X/L	4.d\	.
.	8e/	.	.
8r	8d/J	.	.
(4.F#^\ 4.c\	8ee-X/L	4.a\	.
.	8dd/	.	.
.	8cc/J	.	.
!LO:LB:g=original	!	!	!
=7	=7	=7	=7
4G\) 4B-\	8b-/L	4.g\	.
.	8a/	.	.
8r	8g/J	.	.
4.A:\ 4.e\: 4.g\:	8bb-/L	4.a:\ 4.cc#X\:	f
.	8aa/	.	.
.	8gg/J	.	.
=8	=8	=8	=8
4.A:\ 4.d\: 4.f\:	8bb-/L	4.a:\ 4.dd\:	.
.	8aa/	.	.
.	8gg#X/J	.	.
4.A:\ 4.c\: 4.e\:	8aa/L	4.a:\ 4.cc#X\:	.
.	8ggn/	.	.
.	8ee/J	.	.
=9	=9	=9	=9
4.d\ 4.f\	8ff/L	4.a\	.
.	8ee/	.	.
.	8dd/J	.	.
4.A\ 4.e\	8cc#X/L	4.g\	.
.	8dd/	.	.
.	8ee/J	.	.
=10	=10	=10	=10
4.B-\ 4.d\	8dd/L	4.f\	.
.	8cc/	.	.
.	8b-/J	.	.
4.F#X\ 4.c\	8a/L	4.e-X\	.
.	8b-/	.	.
.	8cc/J	.	.
=11	=11	=11	=11
4.G\ 4.B-\	8b-/L	4.d\	.
.	8a/	.	.
.	8g/J	.	.
4.E\ 4.G\ 4.A\	8cc#X/L	4.en\	.
.	8qccn/	.	.
.	8b-^</	.	.
.	8a/J	.	.
=12	=12	=12	=12
4.D\ 4.F\ 4.A\	8dd/L	4.f\	.
.	8qcc/	.	.
.	8b-^</	.	.
.	8a/J	.	.
4.C#X\ 4.E\ 4.A\	8ee/L	4.g\	.
.	8qcc/	.	.
.	8b-^</	.	.
.	8a/J	.	.
=13	=13	=13	=13
4.D\ 4.F\	4.ff/	8dd\L	.
.	.	8g#X\	.
.	.	8a\J	.
4.GT\	4.ee/	8b-\L	.
.	.	8f#X\	.
.	.	8g#\J	.
16qqF#X/LL	.	.	.
16qqG/JJ	.	.	.
!LO:LB:g=original	!	!	!
=14	=14	=14	=14
4.A\	4.dd/	8a\L	.
.	.	8e\	.
.	.	8f\J	.
4.AA/	4.cc#X/	8g\L	.
.	.	8d#X\	.
.	.	8e\J	.
=15	=15	=15	=15
!	!LO:SIC:o:s=:v:volta zapisana jako łuki z cyfrą na środku	!	!
!	!	!LO:TX:a:t=1.Vol.	!
4D\	8dd/	8f\ 8a\	.
.	[4aa/	8ff\L	.
8r	.	8ee\J	.
4r	8aa/]	8ff\L	.
.	4ff/	8dd\	.
8r	.	8cc#X^>\J	.
=16	=16	=16	=16
4r	8ff/	8dd\L	.
.	4dd/	8a^>\	.
8r	.	8g#X\J	.
4r	4cc#X/	8a\L	.
.	.	8gn\J	.
8A\ 8e\	8ryy	8rff	.
*>B	*>B	*>B	*
=17:|!	=17:|!	=17:|!	=17:|!
!	!LO:SIC:o:s=:v:volta zapisana jako łuki z cyfrą na środku	!	!
!	!	!LO:TX:a:t=2.Vol.	!
4.BB-/	4.dd/	8b-\L	.
.	.	8e\	.
.	.	8f\J	.
4.Et\	4.cc/	8g\L	.
.	.	8d\	.
.	.	8e-X\J	.
16qqD/LL	.	.	.
16qqE/JJ	.	.	.
=18	=18	=18	=18
4.F\	4.b-/	8f\L	.
.	.	8c#X\	.
.	.	8d\J	.
4.FF/	4.a/	8e-X\L	.
.	.	8Bn\	.
.	.	8c#\J	.
*	*v	*v	*
=19	=19	=19
.	16qqdd/LL	.
.	16qqff/JJ	.
4BB-/	8ddd\L	.
.	8ccc\	.
8r	8bb-\J	.
.	16qqaa/LL	.
.	16qqccc/JJ	.
(4.F\ 4.c\ 4.e-X\ 4.a\	8ggg\	sf
.	8fff\	.
.	8eee-X\J	.
=20	=20	=20
4B-\) 4d\	8ddd\L	.
.	8ccc\	.
8r	8bb-\J	.
.	16qqaa/LL	.
.	16qqccc/JJ	.
(4.F\ 4.c\ 4.e-X\ 4.a\	8ggg\L	sf
.	8fff\	.
.	8eee-X\J	.
!LO:LB:g=original	!	!
=21	=21	=21
*	*^	*
4.B-\) 4.d\	4.ddd/	8bb-\L	.
.	.	8een\	.
.	.	8ff\J	.
4.e-XT\	4.ccc/	8gg\L	.
.	.	8dd\	.
.	.	8ee-X\J	.
16qqd/LL	.	.	.
16qqe-/JJ	.	.	.
=22	=22	=22	=22
4.f\	4.bb-/	8ff\L	.
.	.	8cc#X\	.
.	.	8dd\J	.
4.F\	4.aa/	8ee-X\L	.
.	.	8bn\	.
.	.	8cc#\J	.
*	*v	*v	*
=23	=23	=23
.	16qqdd/LL	.
.	16qqff/JJ	.
4B-\	8ddd\L	.
.	8ccc\	.
8r	8bb-\J	.
.	16qqdd/LL	.
.	16qqff#X/JJ	.
*clefG2	*	*
(4.d/ 4.a/ 4.cc/	8eee-X\L	sf
.	8ddd\	.
.	8ccc\J	.
=24	=24	=24
4g/) 4b-/	8bb-\L	.
.	8aa\	.
8r	8gg\J	.
.	16qqdd/LL	.
.	16qqff#X/JJ	.
4.d/ 4.a/ (>4.cc/	8eee-X\L	sf
.	8ddd\	.
.	8ccc\J	.
=25	=25	=25
*	*^	*
4.g/) 4.b-/	4.bb-/	8gg\L	.
.	.	8cc#X\	.
.	.	8dd\J	.
*clefF4	*	*	*
4.cT\	4.aa/	8ee-X\L	.
.	.	8bn\	.
.	.	8cc#\J	.
16qqBn/LL	.	.	.
16qqc/JJ	.	.	.
=26	=26	=26	=26
4.d\	4.gg/	8dd\L	.
.	.	8a\	.
.	.	8b-\J	.
4.D\	4.ff#X/	8cc\L	.
.	.	8g#X\	.
.	.	8a\J	.
*	*v	*v	*
=27	=27	=27
.	16qqb-/LL	.
.	16qqdd/JJ	.
4G\	8bb-\L	.
.	8aa\	.
8r	8gg\J	.
.	16qqcc/LL	.
.	16qqee/JJ	.
*clefG2	*	*
(>4.c/ 4.g/ 4.b-/	8ddd\L	rfz.
.	8ccc\	.
.	8bb-\J	.
!LO:LB:g=original	!	!
=28	=28	=28
4f/) 4a/	8aa\L	.
.	8gg\	.
8r	8ff\J	.
.	16qqcc/LL	.
.	16qqee/JJ	.
(>4.c/ 4.g/ 4.b-/	8ddd\L	sf
.	8ccc\	.
.	8bb-\J	.
=29	=29	=29
*	*^	*
4.f/) 4.a/	4.aa/	8ff\L	.
.	.	8bn\	.
.	.	8cc\J	.
*clefF4	*	*	*
4.B-\T	4.gg/	8dd\L	.
.	.	8a\	.
.	.	8b-X\J	.
qq16A\L	.	.	.
qq16B-\J	.	.	.
=30	=30	=30	=30
4.c\	4.ff/	8cc\L	.
.	.	8g#X\	.
.	.	8a\J	.
4.C/	4.ee/	8b-\L	.
.	.	8f#X\	.
.	.	8gn\J	.
=31	=31	=31	=31
4F\	8ff/	8a\ 8cc\	.
.	[4ccc/	8aa^<\L	.
8r	.	8gg#X\J	.
4r	8ccc/]	8aa\L	.
.	[4aa^/	8ff\	.
8r	.	8ee\J	.
=32	=32	=32	=32
2.r	8aa/]	8ff\L	.
.	[4ff^/	8cc\	.
.	.	8bn\J	.
.	8ff/]	8cc\L	.
.	4cc/	8a\	.
.	.	8f\J	.
*	*v	*v	*
=33	=33	=33
.	16qqc/LL	.
.	16qqe/JJ	.
(4.C\ 4.G\ 4.B-\	(8dd^>/L	.
.	8cc/	.
.	8b-/J	.
4F\) 4A\	8a/L	.
.	8g/	.
8r	8f/J)	.
=34	=34	=34
.	16qqd/LL	.
.	16qqf#X/JJ	.
(4.D\ 4.A\ 4.c\	(8ee-X^>/L	.
.	8dd/	.
.	8cc/J	.
4G\) 4B-\	8b-/L	.
.	8a/	.
8r	8g/J)	.
!LO:LB:g=original	!	!
=35	=35	=35
.	16qqb-/LL	.
.	16qqcc/JJ	.
4G:\ 4B-\: 4c\: 4e\:	8bb-\L	.
.	8aa\	.
8r	8gg\J	.
.	16qqg/LL	.
.	16qqb-/JJ	.
4E:\ 4G\: 4B-\: 4c\:	8gg\L	.
.	8ff\	.
8r	8ee\J	.
=36	=36	=36
.	16qqe/LL	.
.	16qqg/JJ	.
4C:\ 4E\: 4G\: 4B-\:	8ee\L	.
.	8dd\	.
8r	8cc\J	.
.	16qqc/LL	.
.	16qqg/JJ	.
4.EE/ 4.E/	8cc\L	.
.	8dd\	.
.	8b-\J	.
=37	=37	=37
*	*^	*
[4.FF/ [4.F/	8a/	8a\	.
.	[4ff/	8cc\L	.
.	.	8bn\J	.
4.FF/_ 4.F/_	8ff/]	8cc\L	.
.	[4aa/	8ff\	.
.	.	8ee\J	.
=38	=38	=38	=38
4.FF/] 4.F/]	8aa/]	8ff\L	.
.	4ccc/	8aa\	.
.	.	8gg#X\J	.
4.B-\	8ccc/L	8aa\L	.
.	8bb-/	8dd\	.
.	8gg#/J	8b-\J	.
*clefG2	*	*	*
*	*v	*v	*
=39	=39	=39
*^	*	*
8c/	8c\L	8a\ 8ff\	.
[4a/	8f\	4r	.
.	8e\J	.	.
8a/]	8f\L	8r	.
[4f/	8c\	4r	.
.	8Bn\J	.	.
=40	=40	=40	=40
8f/]	8c\L	8r	.
!	!	!	!LO:DY:a
4c/	8A^>\	4r	.
.	8F\J	.	<
*v	*v	*	*
*clefF4	*	*
!	!LO:SIC:o:s=:v:znaczki artykulacyjne w źródle odwrotnie	!
4C/	(8cc^^\L 8ccc\	.
.	8dd^^\ 8bbn\	.
8r	8ee^^\J) 8bb-X\	.
*clefG2	*	*
=41	=41	=41
*	*^	*
4.f/ 4.a/	8aa/L	4.ff\	[
.	8gg/	.	.
.	8ff/J	.	.
4.c#X/ 4.g/	8ee/L	4.a^\	.
.	8ff/	.	.
.	8gg/J	.	.
*clefF4	*	*	*
!LO:LB:g=original	!	!	!
=42	=42	=42	=42
4.d\ 4.f\	8ff/L	4.a\	.
.	8ee/	.	.
.	8dd/J	.	.
4.A\ 4.e\	8cc#X/L	4.g\	.
.	8dd/	.	.
.	8ee/J	.	.
=43	=43	=43	=43
4.B-\ 4.d\	8dd/L	4.f\	.
.	8ccn/	.	.
.	8b-/J	.	.
4.F#X\ 4.c\	8a/L	4.e-X\	.
.	8b-/	.	.
.	8cc/J	.	.
=44	=44	=44	=44
4.G\ 4.B-\	8b-/L	4.d\	.
.	8a/	.	.
.	8g/J	.	.
4.D\ 4.A\	8f#X/L	4.c\	.
.	8g/	.	.
.	8a/J	.	.
=45	=45	=45	=45
4.E-X\ 4.G\	8g/L	4.B-\	.
.	8fn/	.	.
.	8e-X/J	.	.
(4.C#X^\ 4.G\	8b-/L	4.en\	.
.	8a/	.	.
.	8g/J	.	.
=46	=46	=46	=46
4D\) 4F#X\	8f#X/L	4.d\	.
.	8e/	.	.
8r	8d/J	.	.
(4.F#^\ 4.c\	8ee-X/L	4.a\	.
.	8dd/	.	.
.	8cc/J	.	.
=47	=47	=47	=47
4G\) 4B-\	8b-/L	4.g\	.
.	8a/	.	.
8r	8g/J	.	.
4.A\ 4.g\	8bb-/L	4.a:\ 4.cc#X\:	f
.	8aa/	.	.
.	8gg#X/J	.	.
=48	=48	=48	=48
4.A\ 4.d\ 4.f\	8bb-/L	4.a:\ 4.dd\:	.
.	8aa/	.	.
.	8gg#X/J	.	.
4.A\ 4.e\	8aa/L	4.a:\ 4.cc#X\:	.
.	8ggn/	.	.
.	8ee/J	.	.
!LO:LB:g=original	!	!	!
=49	=49	=49	=49
4.d\ 4.f\	8ff/L	4.a\	.
.	8ee/	.	.
.	8dd/J	.	.
4.A\ 4.e\	8cc#X/L	4.g\	.
.	8dd/	.	.
.	8ee/J	.	.
=50	=50	=50	=50
4.B-\ 4.d\	8dd/L	4.f\	.
.	8ccn/	.	.
.	8b-/J	.	.
4.F#X\ 4.c\	8a/L	4.e-X\	.
.	8b-/	.	.
.	8cc/J	.	.
=51	=51	=51	=51
4.G\ 4.B-\	8b-/L	4.d\	.
.	8a/	.	.
.	8g/J	.	.
4.E\ 4.G\ 4.A\	8cc#X/L	4.en\	.
.	8qccn/	.	.
.	8b-^</	.	.
.	8a/J	.	.
=52	=52	=52	=52
4.D\ 4.F\ 4.A\	8dd/L	4.f\	.
.	8qcc/	.	.
.	8b-^</	.	.
.	8a/J	.	.
4.C#X\ 4.E\ 4.A\	8ee/L	4.g\	.
.	8qcc/	.	.
.	8b-^</	.	.
.	8a/J	.	.
=53	=53	=53	=53
4.D\ 4.F\	4.ff/	8dd\L	.
.	.	8g#X\	.
.	.	8a\J	.
4.GT\	4.ee/	8b-\L	.
.	.	8f#X\	.
.	.	8g#\J	.
16qqF#X/LL	.	.	.
16qqG/JJ	.	.	.
=54	=54	=54	=54
4.A\	4.dd/	8a\L	.
.	.	8e\	.
.	.	8f\J	.
4.AA/	4.cc#X/	8g\L	.
.	.	8d#X\	.
.	.	8e\J	.
=55	=55	=55	=55
4D\	4.aa/	8ff\L	.
.	.	8ee\	.
8r	.	8dd\J	.
(4.A\ 4.e\ 4.g\	4.bb-/	8cc#X\L	sf
.	.	8ee\	.
.	.	8gg\J	.
!LO:LB:g=original	!	!	!
=56	=56	=56	=56
4d\) 4f\	4.aa/	8ff\L	.
.	.	8eet>\	.
8r	.	8dd\J	.
(4.A\ 4.e\ 4.g\	4.bb-/	8cc#X\L	sf
.	.	8ee\	.
.	.	8gg\J	.
=57	=57	=57	=57
4d\) 4f\	4.aa/	8ff\L	.
.	.	8ee\	.
8r	.	8dd\J	.
4.G\	4b-/	8b-\L	.
.	.	8g\	.
.	8ee^/	8b-\J	.
=58	=58	=58	=58
4.A\	4a/	8a\L	.
.	.	8f\	.
.	8dd^/	8a\J	.
4.AA/	4g/	8g\L	.
.	.	8e\	.
.	8cc#X^/	8g\J	.
=59	=59	=59	=59
4D\ 4F\	4.dd/	8f\L	.
.	.	8et>\	.
8r	.	8d\J	.
(4.AA\ 4.E\ 4.G\	4.b-/	8c#X\L	sf
.	.	8e\	.
.	.	8g\J	.
=60	=60	=60	=60
4.D\) 4.F\	4.a/	8f\L	.
.	.	8e\	.
.	.	8d\J	.
(4.AA\ 4.E\ 4.G\	4.b-/	8c#X\L	sf
.	.	8e\	.
.	.	8g\J	.
=61	=61	=61	=61
4D\) 4F\	4.a/	8f\L	.
.	.	8e\	.
8r	.	8d\J	.
4.GG/	4B-/	8B-\L	.
.	.	8G\	.
.	8e^/	8B-\J	.
=62	=62	=62	=62
4.AA\	4A</	8A<\L	.
.	.	8F<\	.
.	8d<^/	8A<\J	.
4.AAA\	4G</	8G<\L	.
.	.	8E<\	.
.	8c#X<^/	8G<\J	.
*	*v	*v	*
!LO:LB:g=original	!	!
=63	=63	=63
8DD\	8F</ 8d</	.
8G\L	8B-</L	p
8F\J	8A</J	.
8E\L	8G</L	.
8F\	8A</	.
8G\J	8B-</J	.
=64	=64	=64
8F\L	8A</L	.
8E\	8G</	.
8F\J	8A</J	.
8G\L	8B-</L	.
8F\	8A</	.
8E\J	8G</J	.
=65	=65	=65
!	!LO:TX:b:i:t=slen-------tan---------do.	!
8F\	8A</	.
8AA\L	8F</L	.
8GG\J	8E</J	.
8FF\L	8D</L	.
8GG\	8E</	.
8AA\J	8F</J	.
=66	=66	=66
8GG\L	8E</L	.
8FF\	8D</	.
8GG\J	8E</J	.
8AA\L	8F</L	.
8GG\	8E</	.
8EE\J	8C#X</J	.
==67	==67	==67
*M2/4	*M2/4	*
!	!LO:TX:a:B:t=Piu Presto	!
8DD\L	8D</L	f
16EE\L	16E</L	.
16FF\JJ	16F</JJ	.
16GG\LL	16G</LL	.
16AA\	16A</	.
16BBn\	16Bn</	.
16C#X\JJ	16c#X</JJ	.
!LO:LB:g=original	!	!
=68	=68	=68
16D\LL	16d/LL	.
16AA\	16A/	.
16BBn\	16Bn/	.
16C#X\JJ	16c#X/JJ	.
16D\LL	16d/LL	.
16E\	16e/	.
16F\	16f/	.
16G\JJ	16g/JJ	.
=69	=69	=69
16A\LL	16a/LL	.
16D\	16d/	.
16E\	16e/	.
16F\JJ	16f/JJ	.
16G\LL	16g/LL	.
16A\	16a/	.
16Bn\	16bn/	.
16c#X\JJ	16cc#X/JJ	.
=70	=70	=70
16d\LL	16dd\LL	.
16A\	16a\	.
16Bn\	16bn\	.
16c#X\JJ	16cc#X\JJ	.
*clefG2	*	*
16d/LL	16dd\LL	.
16e/	16ee\	.
16f/	16ff\	.
16g/JJ	16gg\JJ	.
=71	=71	=71
16a/LL	16aa\LL	.
16d/	16dd\	.
16e/	16ee\	.
16f/JJ	16ff\JJ	.
16g/LL	16gg\LL	.
16a/	16aa\	.
16bn/	16bbn\	.
16cc#X/JJ	16ccc#X\JJ	.
=72	=72	=72
16dd/LL	16ddd\LL	.
16a/	16aa\	.
16bn/	16bbn\	.
16cc#X/JJ	16ccc#X\JJ	.
*	*8va	*
!	!LO:SIC:o=:v: zygzakowata linia	!
16dd\LL	16ddd\LL	.
16ee\	16eee\	.
16ff\	16fff\	.
16gg\JJ	16ggg\JJ	.
=73	=73	=73
16aa`\LL	16aaa`\LL	.
(16ee\	(16eee\	.
16ff\)	16fff\)	.
16cc#X`\JJ	16ccc#X`\JJ	.
16dd`\LL	16ddd`\LL	.
(16g#X\	(16gg#X\	.
16a\)	16aa\)	.
16e`\JJ	16ee`\JJ	.
*	*X8va	*
!LO:LB:g=original	!	!
=74	=74	=74
!	!LO:TX:a:B:t=loco	!
16f/LL	16ff\LL	.
16c#X/	16cc#X\	.
16d/	16dd\	.
16G#X/JJ	16g#X\JJ	.
*clefF4	*	*
16A\LL	16a/LL	.
16E\	16e/	.
16F\	16f/	.
16C#X\JJ	16c#X/JJ	.
=75	=75	=75
16D\LL	16d/LL	.
16GG#X\	16G#X</	.
16AA\	16A</	.
16EE\JJ	16E</JJ	.
16FF\LL	16F</LL	.
16CC#X\	16C#X</	.
16DD\	16D</	.
16BBB-X\JJ	16BB-X</JJ	.
=76	=76	=76
8AAA\	8AA</	.
8r	8r	.
8AAA/ 8AA/	8e/ 8g/ 8cc#X/	.
8r	8r	.
=77	=77	=77
4DD/ 4D/	4d/ 4f/ 4dd/	.
4r	4r	.
=78	=78	=78
4AAA/ 4AA/	4a\ 4cc#X\ 4ee\ 4aa\	f
4r	4r	.
=79	=79	=79
2DD;<\ 2D\	2F<;/ 2A</ 2d</	.
!LO:TX:b:t=3043	!	!
==	==	==
*-	*-	*-
!!!system-decoration: {(s1,s2)}
!!!RDF**kern: > = above
!!!RDF**kern: < = below
!!!EED: Leszek Kubiak
!!!EEV: 2020-07-20
!!!ENC: Anastazja Marusiak
!!!END: 2020-06-16
